X: 24631
T: MacArthur Road
R: reel
M: 4/4
K: Dmajor
|:dA A2 ABde|f2 fd edBd|e2 ef edBd|effd edBe|
dA A2 ABde|f2 fd edBd|e2 ef edBA|Bdde d3e:|
|:fA A2 fAgA|fAgA fdBd|e2 ef edBd|effd edBe|
fA A2 fAgA|fAgA fdBd|e2 ef edBA|Bdde d3e|
fA A2 fAgA|fAgA fdBd|e2 ef edBd|effd edBe|
dA A2 ABde|f2 fd edBd|e2 ef edBA|Bdde d3e||

